swiss/communes/1024.svg

<?xml version="1.0" encoding="UTF-8" standalone="no"?>
<svg
   xmlns:dc="http://purl.org/dc/elements/1.1/"
   xmlns:cc="http://creativecommons.org/ns#"
   xmlns:rdf="http://www.w3.org/1999/02/22-rdf-syntax-ns#"
   xmlns:svg="http://www.w3.org/2000/svg"
   xmlns="http://www.w3.org/2000/svg"
   xmlns:xlink="http://www.w3.org/1999/xlink"
   xmlns:sodipodi="http://sodipodi.sourceforge.net/DTD/sodipodi-0.dtd"
   xmlns:inkscape="http://www.inkscape.org/namespaces/inkscape"
   version="1.1"
   id="svg2"
   width="592"
   height="694"
   viewBox="0 0 592 694"
   sodipodi:docname="CHE_Emmen_COA.svg"
   inkscape:version="1.0.1 (3bc2e813f5, 2020-09-07)">
  <metadata
     id="metadata8">
    <rdf:RDF>
      <cc:Work
         rdf:about="">
        <dc:format>image/svg+xml</dc:format>
        <dc:type
           rdf:resource="http://purl.org/dc/dcmitype/StillImage" />
        <dc:title></dc:title>
      </cc:Work>
    </rdf:RDF>
  </metadata>
  <defs
     id="defs6">
    <inkscape:path-effect
       effect="spiro"
       id="path-effect853"
       is_visible="true"
       lpeversion="1" />
    <inkscape:path-effect
       effect="spiro"
       id="path-effect849"
       is_visible="true"
       lpeversion="1" />
    <clipPath
       id="SVGID_2_">
      <use
         xlink:href="#SVGID_1_"
         overflow="visible"
         id="use9"
         x="0"
         y="0"
         width="100%"
         height="100%" />
    </clipPath>
    <rect
       id="SVGID_1_"
       x="-176.134"
       y="-213.811"
       width="406.504"
       height="492.75" />
    <clipPath
       id="SVGID_2_-0">
      <use
         xlink:href="#SVGID_1_-8"
         overflow="visible"
         id="use9-8"
         x="0"
         y="0"
         width="100%"
         height="100%" />
    </clipPath>
    <rect
       id="SVGID_1_-8"
       x="-176.134"
       y="-213.811"
       width="406.504"
       height="492.75" />
  </defs>
  <sodipodi:namedview
     pagecolor="#ffffff"
     bordercolor="#666666"
     borderopacity="1"
     objecttolerance="10"
     gridtolerance="10"
     guidetolerance="10"
     inkscape:pageopacity="0"
     inkscape:pageshadow="2"
     inkscape:window-width="1920"
     inkscape:window-height="1001"
     id="namedview4"
     showgrid="false"
     inkscape:zoom="0.4320076"
     inkscape:cx="512.60863"
     inkscape:cy="496.02136"
     inkscape:window-x="-9"
     inkscape:window-y="-9"
     inkscape:window-maximized="1"
     inkscape:current-layer="g10" />
  <g
     inkscape:groupmode="layer"
     inkscape:label="Image"
     id="g10">
    <path
       fill="#ffffff"
       d="M 295.77622,2.6084e-6 H 591.99998 V 410.753 C 591.99998,567.18703 459.45608,694 295.98899,694 132.53216,694 8.8389999e-7,567.18703 8.8389999e-7,410.753 V 2.6084e-6 Z"
       id="path2"
       style="fill:#000000;fill-opacity:1;stroke-width:1.46736"
       sodipodi:nodetypes="ccssscc" />
    <g
       id="g20"
       style="fill:#ff0000;fill-opacity:1"
       transform="matrix(1.4673623,0,0,1.4673623,256.21173,311.50928)">
      <g
         id="g18"
         style="fill:#ff0000;fill-opacity:1">
        <g
           id="g16"
           style="fill:#ff0000;fill-opacity:1">
          <g
             id="g14"
             style="fill:#ff0000;fill-opacity:1">
            <defs
               id="defs7">
              <rect
                 id="rect974"
                 x="-176.134"
                 y="-213.811"
                 width="406.504"
                 height="492.75" />
            </defs>
            <clipPath
               id="clipPath870">
              <use
                 xlink:href="#SVGID_1_-8"
                 overflow="visible"
                 id="use868"
                 x="0"
                 y="0"
                 width="100%"
                 height="100%" />
            </clipPath>
          </g>
        </g>
      </g>
    </g>
    <g
       id="g997">
      <path
         id="path837"
         style="opacity:1;fill:#ffffff;fill-opacity:1;fill-rule:evenodd;stroke-width:1.18999;stroke-linejoin:round;stroke-dasharray:4.75996, 2.37998000000000021, 1.18999000000000010, 2.37998000000000021;paint-order:markers fill stroke"
         d="M 188.74219 46.898438 A 31.4 31.4 0 0 0 157.3418 78.298828 A 31.4 31.4 0 0 0 177.5918 107.65234 L 177.5918 255.74805 C 177.5918 288.23467 151.62431 314.57031 119.5918 314.57031 C 87.559275 314.57031 60.591799 288.23467 60.591797 255.74805 C 60.710143 244.08755 65.058027 232.72926 70.234375 225.29688 C 73.858625 229.25401 77.8147 232.90756 82.044922 236.20898 C 86.442164 239.64075 91.135837 242.69162 96.058594 245.31445 C 92.174344 234.29308 90.12638 222.62676 90.023438 210.94141 C 89.947688 202.34293 90.921638 193.738 92.888672 185.36719 C 94.006024 180.61224 95.44781 175.93374 97.191406 171.37109 C 69.308846 184.54909 37.291016 218.96225 37.291016 255.74805 C 37.291016 304.9472 77.782483 337.99757 118.5918 337.79297 C 168.81203 337.54119 199.89258 295.74025 199.89258 255.74805 L 199.89258 107.65039 A 31.4 31.4 0 0 0 220.14258 78.298828 A 31.4 31.4 0 0 0 188.74219 46.898438 z M 188.62891 63.298828 A 15 15 0 0 1 188.74219 63.298828 A 15 15 0 0 1 203.74219 78.298828 A 15 15 0 0 1 188.74219 93.298828 A 15 15 0 0 1 173.74219 78.298828 A 15 15 0 0 1 188.62891 63.298828 z " />
      <path
         id="path837-1"
         style="opacity:1;fill:#ffffff;fill-opacity:1;fill-rule:evenodd;stroke-width:1.18999;stroke-linejoin:round;stroke-dasharray:4.75996, 2.37998000000000021, 1.18999000000000010, 2.37998000000000021;paint-order:markers fill stroke"
         d="m 521.74217,46.898438 a 31.4,31.4 0 0 0 -31.40039,31.40039 31.4,31.4 0 0 0 20.25,29.353512 v 148.09571 c 0,32.48662 -25.96749,58.82226 -57.99999,58.82226 -32.03253,0 -59,-26.33564 -59.00001,-58.82226 0.11835,-11.6605 4.46623,-23.01879 9.64258,-30.45117 3.62425,3.95713 7.58033,7.61068 11.81055,10.9121 4.39724,3.43177 9.09091,6.48264 14.01367,9.10547 -3.88425,-11.02137 -5.93221,-22.68769 -6.03515,-34.37304 -0.0757,-8.59848 0.8982,-17.20341 2.86523,-25.57422 1.11735,-4.75495 2.55914,-9.43345 4.30273,-13.9961 -27.88256,13.178 -59.90039,47.59116 -59.90039,84.37696 0,49.19915 40.49147,82.24952 81.30079,82.04492 50.22022,-0.25178 81.30077,-42.05272 81.30077,-82.04492 V 107.65039 a 31.4,31.4 0 0 0 20.25,-29.351562 31.4,31.4 0 0 0 -31.40039,-31.40039 z m -0.11328,16.40039 a 15,15 0 0 1 0.11328,0 15,15 0 0 1 15,15 15,15 0 0 1 -15,15 15,15 0 0 1 -15,-15 15,15 0 0 1 14.88672,-15 z" />
      <path
         id="path837-14"
         style="opacity:1;fill:#ffffff;fill-opacity:1;fill-rule:evenodd;stroke-width:1.18999;stroke-linejoin:round;stroke-dasharray:4.75996, 2.37998000000000021, 1.18999000000000010, 2.37998000000000021;paint-order:markers fill stroke"
         d="m 296.71105,328.50225 a 31.4,31.4 0 0 0 -31.40039,31.40039 31.4,31.4 0 0 0 20.25,29.35352 v 148.09571 c 0,32.48662 -25.96749,58.82226 -58,58.82226 -32.03252,0 -59,-26.33564 -59,-58.82226 0.11834,-11.6605 4.46623,-23.01879 9.64258,-30.45117 3.62425,3.95713 7.58032,7.61068 11.81054,10.9121 4.39725,3.43177 9.09092,6.48264 14.01368,9.10547 -3.88425,-11.02137 -5.93222,-22.68769 -6.03516,-34.37304 -0.0757,-8.59848 0.8982,-17.20341 2.86523,-25.57422 1.11736,-4.75495 2.55914,-9.43345 4.30274,-13.9961 -27.88256,13.178 -59.90039,47.59116 -59.90039,84.37696 0,49.19915 40.49146,82.24952 81.30078,82.04492 50.22023,-0.25178 81.30078,-42.05272 81.30078,-82.04492 V 389.25421 a 31.4,31.4 0 0 0 20.25,-29.35157 31.4,31.4 0 0 0 -31.40039,-31.40039 z m -0.11328,16.40039 a 15,15 0 0 1 0.11328,0 15,15 0 0 1 15,15 15,15 0 0 1 -15,15.00001 15,15 0 0 1 -15,-15.00001 15,15 0 0 1 14.88672,-15 z" />
    </g>
  </g>
</svg>

<svg xmlns="http://www.w3.org/2000/svg" width="592" height="694"><defs><path id="a" d="M-176.134-213.811H230.37v492.75h-406.504z"/><path id="b" d="M-176.134-213.811H230.37v492.75h-406.504z"/></defs><path fill="#fff" d="M295.776 0H592v410.753C592 567.187 459.456 694 295.989 694 132.532 694 0 567.187 0 410.753V0z" style="fill:#000;fill-opacity:1;stroke-width:1.46736"/><path style="opacity:1;fill:#fff;fill-opacity:1;fill-rule:evenodd;stroke-width:1.18999;stroke-linejoin:round;stroke-dasharray:4.75996,2.37998000000000021,1.1899900000000001,2.37998000000000021;paint-order:markers fill stroke" d="M188.742 46.898a31.4 31.4 0 0 0-31.4 31.4 31.4 31.4 0 0 0 20.25 29.354v148.096c0 32.487-25.968 58.822-58 58.822-32.033 0-59-26.335-59-58.822.118-11.66 4.466-23.019 9.642-30.451a96.7 96.7 0 0 0 25.825 20.017 106.466 106.466 0 0 1-6.036-34.373 107.784 107.784 0 0 1 2.866-25.574 109.217 109.217 0 0 1 4.302-13.996c-27.882 13.178-59.9 47.591-59.9 84.377 0 49.2 40.491 82.25 81.3 82.045 50.221-.252 81.302-42.053 81.302-82.045V107.65a31.4 31.4 0 0 0 20.25-29.351 31.4 31.4 0 0 0-31.4-31.4zm-.113 16.4a15 15 0 0 1 .113 0 15 15 0 0 1 15 15 15 15 0 0 1-15 15 15 15 0 0 1-15-15 15 15 0 0 1 14.887-15zM521.742 46.898a31.4 31.4 0 0 0-31.4 31.4 31.4 31.4 0 0 0 20.25 29.354v148.096c0 32.487-25.968 58.822-58 58.822-32.033 0-59-26.335-59-58.822.118-11.66 4.466-23.019 9.642-30.451a96.7 96.7 0 0 0 25.825 20.017 106.466 106.466 0 0 1-6.036-34.373 107.787 107.787 0 0 1 2.866-25.574 109.218 109.218 0 0 1 4.302-13.996c-27.882 13.178-59.9 47.591-59.9 84.377 0 49.2 40.491 82.25 81.3 82.045 50.221-.252 81.302-42.053 81.302-82.045V107.65a31.4 31.4 0 0 0 20.25-29.351 31.4 31.4 0 0 0-31.4-31.4zm-.113 16.4a15 15 0 0 1 .113 0 15 15 0 0 1 15 15 15 15 0 0 1-15 15 15 15 0 0 1-15-15 15 15 0 0 1 14.887-15zM296.711 328.502a31.4 31.4 0 0 0-31.4 31.4 31.4 31.4 0 0 0 20.25 29.354v148.096c0 32.486-25.968 58.822-58 58.822-32.033 0-59-26.336-59-58.822.118-11.66 4.466-23.019 9.642-30.451a96.7 96.7 0 0 0 25.824 20.017 106.466 106.466 0 0 1-6.035-34.373 107.787 107.787 0 0 1 2.866-25.574 109.218 109.218 0 0 1 4.302-13.996c-27.882 13.178-59.9 47.591-59.9 84.377 0 49.199 40.491 82.25 81.3 82.045 50.22-.252 81.301-42.053 81.301-82.045V389.254a31.4 31.4 0 0 0 20.25-29.351 31.4 31.4 0 0 0-31.4-31.4zm-.113 16.4a15 15 0 0 1 .113 0 15 15 0 0 1 15 15 15 15 0 0 1-15 15 15 15 0 0 1-15-15 15 15 0 0 1 14.887-15z"/></svg>
